!!!ONB: MCCC : IFS0515_06 : Extracted Monophonic Melody
!!!COM: Schubert, Franz
!!!OPR: 6 Moments musicaux
!!!OMV: 6
!!!SCT: D.780 (Op.94)
!!!ODT: 1823///
**kern
*staff1
*clefG2
*k[b-e-a-d-]
*A-:
*M3/4
4cc
=2
2.cc
=3
4b-
4r
4ff
=4
2.ff
=5
4ee-
8r
8e-
8a-
8cc
=6
2dd-
4cc
=7
2b-
4dd
=8
2.dd
=9
4ee-
4r
4cc
=10
2.cc
=11
4b-
4r
4ff
=12
2.ff
=13
4ee
4r
4ee
=14
2ee-
4ee-
=15
2dd-
8cc
8b-
=16
2.b-
=17
4a-
4r
4cc
=18
2.cc
=19
4b-
4r
4ff
=20
2.ff
=21
4ee-
8r
8e-
8a-
8cc
=22
2dd-
4cc
=23
2b-
4dd
=24
2.dd
=25
4ee-
4r
4cc
=26
2.cc
=27
4b-
4r
4ff
=28
2.ff
=29
4ee
4r
4ee
=30
2ee-
4ee-
=31
2dd-
8cc
8b-
=32
2.b-
=33
4a-
4r
4cc-
=34
2.cc-[
=35
4cc-]
4r
4cc-
=36
2.cc-[
=37
4cc-]
4r
4cc-
=38
4b-
4.ee
8b-
=39
8ee-
8dd-
4cc-
4b-
=40
2.a-
=41
4g
4r
4cc-
=42
2.cc-[
=43
4cc-]
4r
4cc-
=44
2.cc-[
=45
4cc-]
4r
4cc-
=46
4cc-
4.ee
16.cc-
32cc-
=47
8ee-
8dd-
4cc-
4a-
=48
4f
4.dd-
8f
=49
8dd-
8a
4a-
4g-
=50
2e
12e
12a-
12cc-
=51
2b-
8.cc-
32cc-[
32cc-]
=52
4.a
8a-
4g-
=53
2e
12e
12a-
12cc-
=54
2b-
8.cc-
32cc-[
32cc-]
=55
4.a
8a-
4g-
=56
2e
4a-
=57
2a-
4a-
=58
2a-
4a-
=59
2.a-
=60
4.g
8a-
8b-
8cc
=61
2dd-
4dd-
=62
16ee-
16dd-
16cc
16dd-
4ee-
4b-
=63
2.dd-
=64
4cc
4r
4ff
=65
2ff
4ff
=66
4.aa-
8gg
4ff
=67
2.ff[
=68
2ff]
4ee
=69
2ee-
4dd
=70
2dd-
4cc
=71
2.cc
=72
4b-
4r
4ff
=73
2.ff
=74
4ee-
8r
8e-
8a-
8cc
=75
2dd-
4cc
=76
2b-
4dd
=77
2.dd
=78
4ee-
4r
4cc
=79
2cc[
8cc]
8cc-
=80
4b-
4r
4cc
=81
2cc[
8cc]
8cc-
=82
4b-
4r
4cc-[
=83
4cc-]
4cc-
4cc-
=84
4cc-
4dd-
4dd
=85
4ee
4dd
4dd-
=86
2cc-
4r
=87
2b-
4r
=88
2.r
=89
2.r
=90
2.r
=91
2.r
=92
2.r
=93
2.r
=94
4r
4r
4cc-
=95
2.cc-[
=96
4cc-]
4r
4cc-
=97
2.cc-[
=98
4cc-]
4r
4cc-
=99
4b-
4.ee
8b-
=100
8ee-
8dd-
4cc-
4b-
=101
2.a-
=102
4g
4r
4cc-
=103
2.cc-[
=104
4cc-]
4r
4cc-
=105
2.cc-[
=106
4cc-]
4r
4cc-
=107
4cc-
4.ee
16.cc-
32cc-
=108
8ee-
8dd-
4cc-
4a-
=109
4f
4.dd-
8f
=110
8dd-
8a
4a-
4g-
=111
2e
12e
12a-
12cc-
=112
2b-
8.cc-
32cc-[
32cc-]
=113
4.a
8a-
4g-
=114
2e
12e
12a-
12cc-
=115
2b-
8.cc-
32cc-[
32cc-]
=116
4.a
8a-
4g-
=117
2e
4a-
=118
2a-
4a-
=119
2a-
4a-
=120
2.a-
=121
4.g
8a-
8b-
8cc
=122
2dd-
4dd-
=123
16ee-
16dd-
16cc
16dd-
4ee-
4b-
=124
2.dd-
=125
4cc
4r
4ff
=126
2ff
4ff
=127
4.aa-
8gg
4ff
=128
2.ff[
=129
2ff]
4ee
=130
2ee-
4dd
=131
2dd-
4cc
=132
2.cc
=133
4b-
4r
4ff
=134
2.ff
=135
4ee-
8r
8e-
8a-
8cc
=136
2dd-
4cc
=137
2b-
4dd
=138
2.dd
=139
4ee-
4r
4cc
=140
2cc[
8cc]
8cc-
=141
4b-
4r
4cc
=142
2cc[
8cc]
8cc-
=143
4b-
4r
4cc-[
=144
4cc-]
4cc-
4cc-
=145
4cc-
4dd-
4dd
=146
4ee
4dd
4dd-
=147
2cc-
4r
=148
2b-
4r
=149
2.r
=150
2.r
=151
2.r
=152
2.r
=153
2.r
=154
2.r
=155
4r
4r
4f
=156
2f
8g-
8f
=157
2e-
8f
8e-
=158
2.r
=159
4r
4r
4a-
=160
2a-
8b-
8a-
=161
4a-
4dd-
4b-
=162
4g-
4a
4a-
=163
2f
4ff
=164
2ff
8gg-
8ff
=165
2ee-
8ff
8ee-
=166
4dd-
4dd-
4ee-
=167
2a-
4aa-
=168
2aa-
8bb-
8aa-
=169
4aa-
4ddd-
4bb-
=170
4gg-
4aa
4aa-
=171
2ff
4ee-
=172
2ee-
8dd-
8ee-
=173
4cc
4ee-
4ff
=174
4gg-
4aa-
4bb-
=175
2ee-
4ee
=176
2ff
8gg-
8ff
=177
2ee-
4dd
=178
2dd-
8cc
8b-
=179
2ee-
8dd-
8cc
=180
2dd-
8cc
8b-
=181
4a-
4g
4g-
=182
2f
8g-
8f
=183
2e-
8f
8e-
=184
2.r
=185
4r
4r
4a-
=186
2a-
8b-
8a-
=187
4a-
4ff
4ee-
=188
2dd-
4cc
=189
2dd-
4aa-
=190
2aa-
8bb-
8aa-
=191
4aa-
4fff
4eee-
=192
2ddd-
4ccc
=193
2ddd-
4ee-
=194
2ee-
8dd-
8ee-
=195
4cc
4ee-
4ff
=196
4gg-
4aa-
4bb-
=197
2ee-
4ee
=198
2ff
8gg-
8ff
=199
2ee-
4dd
=200
2dd-
8cc
8b-
=201
2ee-
8dd-
8cc
=202
2dd-
8cc
8b-
=203
4a-
4g
4g-
=204
2f
8g-
8f
=205
2e-
8f
8e-
=206
2.r
=207
4r
4r
4a-
=208
2a-
8b-
8a-
=209
4a-
4ff
4ee-
=210
2dd-
4cc
=211
2dd-
4aa-
=212
2aa-
8bb-
8aa-
=213
4aa-
4fff
4eee-
=214
2ddd-
4ccc
=215
2ddd-
4cc
=216
2.cc
=217
4b-
4r
4ff
=218
2.ff
=219
4ee-
8r
8e-
8a-
8cc
=220
2dd-
4cc
=221
2b-
4dd
=222
2.dd
=223
4ee-
4r
4cc
=224
2.cc
=225
4b-
4r
4ff
=226
2.ff
=227
4ee
4r
4ee
=228
2ee-
4ee-
=229
2dd-
8cc
8b-
=230
2.b-
=231
4a-
4r
4cc-
=232
2.cc-[
=233
4cc-]
4r
4cc-
=234
2.cc-[
=235
4cc-]
4r
4cc-
=236
4b-
4.ee
8b-
=237
8ee-
8dd-
4cc-
4b-
=238
2.a-
=239
4g
4r
4cc-
=240
2.cc-[
=241
4cc-]
4r
4cc-
=242
2.cc-[
=243
4cc-]
4r
4cc-
=244
4cc-
4.ee
16.cc-
32cc-
=245
8ee-
8dd-
4cc-
4a-
=246
4f
4.dd-
8f
=247
8dd-
8a
4a-
4g-
=248
2e
12e
12a-
12cc-
=249
2b-
8.cc-
32cc-[
32cc-]
=250
4.a
8a-
4g-
=251
2e
12e
12a-
12cc-
=252
2b-
8.cc-
32cc-[
32cc-]
=253
4.a
8a-
4g-
=254
2e
4a-
=255
2a-
4a-
=256
2a-
4a-
=257
2.a-
=258
4.g
8a-
8b-
8cc
=259
2dd-
4dd-
=260
16ee-
16dd-
16cc
16dd-
4ee-
4b-
=261
2.dd-
=262
4cc
4r
4ff
=263
2ff
4ff
=264
4.aa-
8gg
4ff
=265
2.ff[
=266
2ff]
4ee
=267
2ee-
4dd
=268
2dd-
4cc
=269
2.cc
=270
4b-
4r
4ff
=271
2.ff
=272
4ee-
8r
8e-
8a-
8cc
=273
2dd-
4cc
=274
2b-
4dd
=275
2.dd
=276
4ee-
4r
4cc
=277
2cc[
8cc]
8cc-
=278
4b-
4r
4cc
=279
2cc[
8cc]
8cc-
=280
4b-
4r
4cc-[
=281
4cc-]
4cc-
4cc-
=282
4cc-
4dd-
4dd
=283
4ee
4dd
4dd-
=284
2cc-
4r
=285
2b-
4r
=286
2.r
=287
2.r
=288
2.r
=289
2.r
=290
2.r
=291
2.r
=292
2.r
==
*-
